X: 142
T: No_98_Song_During_Which_Members_of_the_Council_Dance.krn
N: Derived from No_98_Song_During_Which_Members_of_the_Council_Dance.krn
%%abc-version 2.0
%%abcx-abcm2ps-target-version 5.9.1 (29 Sep 2008)
%%abc-creator hum2abc beta
%%abcx-conversion-date 2019/03/15 08:35:45
%%humdrum-veritas 1789472466
%%humdrum-veritas-data 1488508703
%%linebreak <none>
%%barnumbers 0
L: 1/8
M: 2/4
K: C clef=bass
[K:clef=bass][M:2/4]z2z z/ A,/ | 
C3/C/ (3B,B,B, ||  
[M:3/4]C2A,/A,3/ A, z/ A,/ ||  
[M:2/4]C3/C/ (3B,B,B, ||  
[M:3/4]C2A,/A,3/ A, z/ A,/ ]|:  
[M:2/4]B,3/B,/ (3A,G,A, | 
A,3/A,/E,2 | 
D,3/C,/ D,E,/D,/ | 
C,2C, z ||  
[M:3/4]D,3/C,/ C,/A,,3/A,,2 | 
C,2A,,/A,, z/ A,,3/A,,/ ||  
[M:2/4]A,,4 | 
A,,2z2 | 
A,/A,3/ A, z/ A,/ :|]  



